svg/emoji_u1f44f_1f3fb.svg

<svg width="128" height="128" viewBox="0 0 128 128" fill="none" xmlns="http://www.w3.org/2000/svg">
<path d="M48.1899 35.1901C46.4399 32.0401 43.2499 26.3001 46.1999 22.4601C48.8299 19.0401 53.3299 20.1401 56.9499 23.8701L59.0699 26.1701C59.0699 26.1701 57.2799 19.5901 62.5099 17.8001C66.0199 16.6001 68.9299 17.8701 73.6399 23.5201C82.1299 33.7001 100.14 64.7701 100.14 64.7701C100.98 66.1501 101.81 67.4001 102.42 67.1901C102.91 67.0201 104.24 62.1301 104.24 62.1301C104.14 55.3901 104.63 47.5601 106.98 43.2501C109.39 38.8301 113.74 37.2301 116.77 38.2101C119.42 39.0701 120.81 41.1501 119.97 45.7701C119.26 49.6901 119.05 59.6601 119.9 69.3901C120.58 77.2001 120.9 82.2801 120.33 88.5501C119.24 100.46 114.53 112.22 100.97 119.36C93.4799 123.31 85.4499 124.1 77.9799 122.9C77.9699 122.91 48.8699 36.4101 48.1899 35.1901Z" fill="#DBA870" style="fill:#DBA870;fill:color(display-p3 0.8588 0.6588 0.4392);fill-opacity:1;"/>
<path d="M78.5099 54.39C75.7399 48.27 72.5799 43.56 69.0999 38.23C66.6199 34.43 62.2699 28.05 60.9199 24.85C59.9899 22.65 60.0099 20.89 60.1299 19.95C60.1599 19.75 59.8999 19.65 59.7799 19.81C58.6799 21.4 58.0999 23.98 59.2299 26.75C60.9599 30.95 64.6799 36.31 67.1999 40.16C70.8799 45.79 73.4499 49.89 75.7999 55.55L79.6399 58.45C79.6499 58.46 79.5399 56.68 78.5099 54.39Z" fill="#C58F4F" style="fill:#C58F4F;fill:color(display-p3 0.7708 0.5606 0.3083);fill-opacity:1;"/>
<path d="M53.41 118.35C50.73 116.63 43.7 111.37 36.15 103.15C24.95 90.9499 19.52 78.3499 17.24 73.6199C15.05 69.0699 14.51 63.6699 17.13 61.8199C20.08 59.7399 22.82 61.8299 22.82 61.8299C20.28 57.8599 18.63 53.9499 18.2 50.7799C17.61 46.3599 20.3 44.3099 20.79 44.0399C23.11 42.7599 25.21 44.3999 25.21 44.3999C25.21 44.3999 22.44 40.5099 21.73 36.3499C21.29 33.7899 22.25 31.1499 24.42 29.6499C27.17 27.7599 29.77 28.3099 33.83 31.8899L35.48 33.1499C35.48 33.1499 34.72 31.0199 34.71 28.7699C34.7 26.7199 35.68 24.4199 38.08 23.4899C41.17 22.2899 43.53 23.0799 47.77 27.4599C51.57 31.3899 64.2 44.4199 72.9 51.4599C79.03 56.4299 85.83 61.3799 89.35 63.4799C90.47 64.1499 91.42 63.2599 91.11 61.6799C89.18 51.9299 88.43 44.4099 90.27 38.7199C92.11 33.0199 95.62 29.9099 99.57 30.2199C101.43 30.3699 103.28 31.4799 104.08 33.6399C104.79 35.5799 104.81 38.8099 104.9 40.8599C105.22 48.7899 111.76 71.5499 113.1 77.8099C115.66 89.6899 114.66 102.53 103.67 113.57C88.94 128.41 65.52 126.11 53.41 118.35Z" fill="#F9DDBD" style="fill:#F9DDBD;fill:color(display-p3 0.9765 0.8667 0.7412);fill-opacity:1;"/>
<path d="M44.41 91.2901C44 92.6801 43.24 94.2401 42.18 93.3501C40.73 92.1301 40.93 90.8801 39.31 89.2101C34.65 84.4001 26 71.9901 24.01 67.0301C22.64 63.6101 22.83 61.8301 22.83 61.8301C22.83 61.8301 34.1 79.1301 44.28 88.6001C45.18 89.4401 44.46 91.1301 44.41 91.2901Z" fill="#DBA870" style="fill:#DBA870;fill:color(display-p3 0.8588 0.6588 0.4392);fill-opacity:1;"/>
<path d="M50.4499 79.7801C48.9399 79.2001 48.6299 76.8701 47.5099 75.7901C42.0199 70.5301 30.2299 56.0301 26.7199 49.3101C25.2899 46.5601 25.2699 45.2801 25.1699 44.3401C25.1699 44.3401 41.6899 65.0201 50.4999 73.0501C51.0599 73.5601 52.8199 74.1301 53.1999 74.9701C53.9299 76.5901 51.6699 80.2401 50.4499 79.7801Z" fill="#DBA870" style="fill:#DBA870;fill:color(display-p3 0.8588 0.6588 0.4392);fill-opacity:1;"/>
<path d="M62.21 61.8901C52.83 54.0501 35.3 33.0601 35.3 33.0601C35.3 33.0601 35.66 36.0101 37.75 39.2401C41.38 44.8701 51.91 57.9301 58.94 64.5701C60.29 65.8501 60.21 67.4201 61.64 67.5401C63.17 67.6701 65.03 65.8601 65.13 64.4801C65.22 63.3001 63.77 63.1901 62.21 61.8901Z" fill="#DBA870" style="fill:#DBA870;fill:color(display-p3 0.8588 0.6588 0.4392);fill-opacity:1;"/>
<path d="M5 93.87L17.78 92.96" stroke="#B0BEC5" style="stroke:#B0BEC5;stroke:color(display-p3 0.6902 0.7451 0.7725);stroke-opacity:1;" stroke-width="5" stroke-miterlimit="10" stroke-linecap="round" stroke-linejoin="round"/>
<path d="M30.43 108.37L26.24 120.48" stroke="#B0BEC5" style="stroke:#B0BEC5;stroke:color(display-p3 0.6902 0.7451 0.7725);stroke-opacity:1;" stroke-width="5" stroke-miterlimit="10" stroke-linecap="round" stroke-linejoin="round"/>
<path d="M6.30005 113.24L22.96 101.55" stroke="#B0BEC5" style="stroke:#B0BEC5;stroke:color(display-p3 0.6902 0.7451 0.7725);stroke-opacity:1;" stroke-width="5" stroke-miterlimit="10" stroke-linecap="round" stroke-linejoin="round"/>
<path d="M120.97 18.54L111.1 26.71" stroke="#B0BEC5" style="stroke:#B0BEC5;stroke:color(display-p3 0.6902 0.7451 0.7725);stroke-opacity:1;" stroke-width="5" stroke-miterlimit="10" stroke-linecap="round" stroke-linejoin="round"/>
<path d="M91.85 21.53L88.22 9.23999" stroke="#B0BEC5" style="stroke:#B0BEC5;stroke:color(display-p3 0.6902 0.7451 0.7725);stroke-opacity:1;" stroke-width="5" stroke-miterlimit="10" stroke-linecap="round" stroke-linejoin="round"/>
<path d="M108.64 3.54004L101.89 22.73" stroke="#B0BEC5" style="stroke:#B0BEC5;stroke:color(display-p3 0.6902 0.7451 0.7725);stroke-opacity:1;" stroke-width="5" stroke-miterlimit="10" stroke-linecap="round" stroke-linejoin="round"/>
<path d="M108.43 57.21C107.25 52.4 106.07 47.14 105.69 43.58C105.39 40.77 105.2 36.21 104.93 35.21C103.98 31.61 101.89 30.98 101.89 30.98C101.89 30.98 103.21 32.37 103.24 36.22C103.27 40.3 103.39 48.29 105.73 57.13C107.27 62.95 109.77 71.33 110.91 78.03C113.32 92.14 111.12 102.07 102.69 112.53C97.8 118.59 87.23 123.06 87.23 123.06C87.23 123.06 95.92 122.51 103.51 115.21C113.59 105.51 117.24 92.93 114 77.85C112.9 72.74 108.81 58.77 108.43 57.21Z" fill="#DBA870" style="fill:#DBA870;fill:color(display-p3 0.8588 0.6588 0.4392);fill-opacity:1;"/>
</svg>

<?xml version="1.0" encoding="utf-8"?>
<!-- Generator: Adobe Illustrator 26.3.1, SVG Export Plug-In . SVG Version: 6.00 Build 0)  -->
<svg version="1.1" id="clapping_hands_emoji_x5F_u1f44f"
	 xmlns="http://www.w3.org/2000/svg" xmlns:xlink="http://www.w3.org/1999/xlink" x="0px" y="0px" viewBox="0 0 128 128"
	 style="enable-background:new 0 0 128 128;" xml:space="preserve">
<g>
	<path style="fill:#DBA870;" d="M48.19,35.19c-1.75-3.15-4.94-8.89-1.99-12.73c2.63-3.42,7.13-2.32,10.75,1.41l2.12,2.3
		c0,0-1.79-6.58,3.44-8.37c3.51-1.2,6.42,0.07,11.13,5.72c8.49,10.18,26.5,41.25,26.5,41.25c0.84,1.38,1.67,2.63,2.28,2.42
		c0.49-0.17,1.82-5.06,1.82-5.06c-0.1-6.74,0.39-14.57,2.74-18.88c2.41-4.42,6.76-6.02,9.79-5.04c2.65,0.86,4.04,2.94,3.2,7.56
		c-0.71,3.92-0.92,13.89-0.07,23.62c0.68,7.81,1,12.89,0.43,19.16c-1.09,11.91-5.8,23.67-19.36,30.81
		c-7.49,3.95-15.52,4.74-22.99,3.54C77.97,122.91,48.87,36.41,48.19,35.19z"/>
	<path style="fill:#FFD29C;" d="M78.51,54.39c-2.77-6.12-5.93-10.83-9.41-16.16c-2.48-3.8-6.83-10.18-8.18-13.38
		c-0.93-2.2-0.91-3.96-0.79-4.9c0.03-0.2-0.23-0.3-0.35-0.14c-1.1,1.59-1.68,4.17-0.55,6.94c1.73,4.2,5.45,9.56,7.97,13.41
		c3.68,5.63,6.25,9.73,8.6,15.39l3.84,2.9C79.65,58.46,79.54,56.68,78.51,54.39z"/>
</g>
<path style="fill:#F9DDBD;" d="M53.41,118.35c-2.68-1.72-9.71-6.98-17.26-15.2c-11.2-12.2-16.63-24.8-18.91-29.53
	c-2.19-4.55-2.73-9.95-0.11-11.8c2.95-2.08,5.69,0.01,5.69,0.01l0,0c-2.54-3.97-4.19-7.88-4.62-11.05c-0.59-4.42,2.1-6.47,2.59-6.74
	c2.32-1.28,4.42,0.36,4.42,0.36l0,0c0,0-2.77-3.89-3.48-8.05c-0.44-2.56,0.52-5.2,2.69-6.7c2.75-1.89,5.35-1.34,9.41,2.24l1.65,1.26
	c0,0-0.76-2.13-0.77-4.38c-0.01-2.05,0.97-4.35,3.37-5.28c3.09-1.2,5.45-0.41,9.69,3.97c3.8,3.93,16.43,16.96,25.13,24
	c6.13,4.97,12.93,9.92,16.45,12.02c1.12,0.67,2.07-0.22,1.76-1.8c-1.93-9.75-2.68-17.27-0.84-22.96c1.84-5.7,5.35-8.81,9.3-8.5
	c1.86,0.15,3.71,1.26,4.51,3.42c0.71,1.94,0.73,5.17,0.82,7.22c0.32,7.93,6.86,30.69,8.2,36.95c2.56,11.88,1.56,24.72-9.43,35.76
	C88.94,128.41,65.52,126.11,53.41,118.35z"/>
<path style="fill:#DBA870;" d="M44.41,91.29c-0.41,1.39-1.17,2.95-2.23,2.06c-1.45-1.22-1.25-2.47-2.87-4.14
	C34.65,84.4,26,71.99,24.01,67.03c-1.37-3.42-1.18-5.2-1.18-5.2S34.1,79.13,44.28,88.6C45.18,89.44,44.46,91.13,44.41,91.29z"/>
<path style="fill:#DBA870;" d="M50.45,79.78c-1.51-0.58-1.82-2.91-2.94-3.99c-5.49-5.26-17.28-19.76-20.79-26.48
	c-1.43-2.75-1.45-4.03-1.55-4.97c0,0,16.52,20.68,25.33,28.71c0.56,0.51,2.32,1.08,2.7,1.92C53.93,76.59,51.67,80.24,50.45,79.78z"
	/>
<path style="fill:#DBA870;" d="M62.21,61.89C52.83,54.05,35.3,33.06,35.3,33.06s0.36,2.95,2.45,6.18
	c3.63,5.63,14.16,18.69,21.19,25.33c1.35,1.28,1.27,2.85,2.7,2.97c1.53,0.13,3.39-1.68,3.49-3.06
	C65.22,63.3,63.77,63.19,62.21,61.89z"/>
<line style="fill:none;stroke:#B0BEC5;stroke-width:5;stroke-linecap:round;stroke-linejoin:round;stroke-miterlimit:10;" x1="5" y1="93.87" x2="17.78" y2="92.96"/>
<line style="fill:none;stroke:#B0BEC5;stroke-width:5;stroke-linecap:round;stroke-linejoin:round;stroke-miterlimit:10;" x1="30.43" y1="108.37" x2="26.24" y2="120.48"/>
<line style="fill:none;stroke:#B0BEC5;stroke-width:5;stroke-linecap:round;stroke-linejoin:round;stroke-miterlimit:10;" x1="6.3" y1="113.24" x2="22.96" y2="101.55"/>
<line style="fill:none;stroke:#B0BEC5;stroke-width:5;stroke-linecap:round;stroke-linejoin:round;stroke-miterlimit:10;" x1="120.97" y1="18.54" x2="111.1" y2="26.71"/>
<line style="fill:none;stroke:#B0BEC5;stroke-width:5;stroke-linecap:round;stroke-linejoin:round;stroke-miterlimit:10;" x1="91.85" y1="21.53" x2="88.22" y2="9.24"/>
<line style="fill:none;stroke:#B0BEC5;stroke-width:5;stroke-linecap:round;stroke-linejoin:round;stroke-miterlimit:10;" x1="108.64" y1="3.54" x2="101.89" y2="22.73"/>
<path style="fill:#DBA870;" d="M108.43,57.21c-1.18-4.81-2.36-10.07-2.74-13.63c-0.3-2.81-0.49-7.37-0.76-8.37
	c-0.95-3.6-3.04-4.23-3.04-4.23s1.32,1.39,1.35,5.24c0.03,4.08,0.15,12.07,2.49,20.91c1.54,5.82,4.04,14.2,5.18,20.9
	c2.41,14.11,0.21,24.04-8.22,34.5c-4.89,6.06-15.46,10.53-15.46,10.53s8.69-0.55,16.28-7.85c10.08-9.7,13.73-22.28,10.49-37.36
	C112.9,72.74,108.81,58.77,108.43,57.21z"/>
</svg>
